X: 31671
T: Parson's Close
R: jig
M: 6/8
K: Adorian
|:E|A^GA cBc|d^cd e2 A|a2 e gee|dBA G2 c|
A^GA c2 c|d^cd a2 a|gee edG|BA^G A2:|
|:c|AaA gAf|eAg dBG|A^GA c2 A|cd^d e2 c|
AaA gAf|e2 g dBG|cdc BAG|EF^G A2:|

